X: 1
T: Haste To The Wedding
R: jig
M: 6/8
L: 1/8
K: Dmaj
|:AFA Agf|ede fdB|AFA dAF|EFE EFG|
AFA Agf|ede fdB|A2g faf|ded d3:|
|:afa afa|bgb bgb|afa agf|ede efg|
a3 f3|ede fdB|A2g faf|ded d3:|


Tune 582	Setting 24749

